icons/Business/profile-line.svg

<svg viewBox="0 0 24 24" xmlns="http://www.w3.org/2000/svg"><path d="M21.0082 3C21.556 3 22 3.44495 22 3.9934V20.0066C22 20.5552 21.5447 21 21.0082 21H2.9918C2.44405 21 2 20.5551 2 20.0066V3.9934C2 3.44476 2.45531 3 2.9918 3H21.0082ZM20 5H4V19H20V5ZM18 15V17H6V15H18ZM12 7V13H6V7H12ZM18 11V13H14V11H18ZM10 9H8V11H10V9ZM18 7V9H14V7H18Z"/></svg>

<svg xmlns="http://www.w3.org/2000/svg" viewBox="0 0 24 24">
    <g>
        <path fill="none" d="M0 0h24v24H0z"/>
        <path d="M2 3.993A1 1 0 0 1 2.992 3h18.016c.548 0 .992.445.992.993v16.014a1 1 0 0 1-.992.993H2.992A.993.993 0 0 1 2 20.007V3.993zM4 5v14h16V5H4zm2 2h6v6H6V7zm2 2v2h2V9H8zm-2 6h12v2H6v-2zm8-8h4v2h-4V7zm0 4h4v2h-4v-2z"/>
    </g>
</svg>
